svg/Pictogram/pictograms-aem-0114-crush_of_whole_body-force_applied_from_side.svg

<?xml version="1.0" encoding="ISO-8859-1" standalone="yes"?>
<svg height="305.909" width="305.909">
  <metadata>
    <rdf:RDF xmlns:cc="http://web.resource.org/cc/" xmlns:dc="http://purl.org/dc/elements/1.1/" xmlns:rdf="http://www.w3.org/1999/02/22-rdf-syntax-ns#">
      <cc:Work rdf:about="">
        <dc:title></dc:title>
        <dc:description></dc:description>
        <dc:subject>
          <rdf:Bag>
            <rdf:li></rdf:li>
          </rdf:Bag>
        </dc:subject>
        <dc:publisher>
          <cc:Agent rdf:about="http://www.unece.org/trans/danger/publi/ghs/pictograms.html">
            <dc:title>Source: UNECE GHS of Classification and Labeling of Chemicals, Source: AEM Pictorial Database, Source: AEM Pictorial Database, Source: AEM Pictorial Database, Source: AEM Pictorial Database</dc:title>
          </cc:Agent>
        </dc:publisher>
        <dc:creator>
          <cc:Agent>
            <dc:title></dc:title>
          </cc:Agent>
        </dc:creator>
        <dc:rights>
          <cc:Agent>
            <dc:title></dc:title>
          </cc:Agent>
        </dc:rights>
        <dc:date></dc:date>
        <dc:format>image/svg+xml</dc:format>
        <dc:type rdf:resource="http://purl.org/dc/dcmitype/StillImage"/>
        <cc:license rdf:resource="http://en.wikipedia.org/wiki/Public_domain"/>
        <dc:language>en</dc:language>
      </cc:Work>
    </rdf:RDF>
  </metadata>
  <defs><marker id="ArrowEnd" markerHeight="3" markerUnits="strokeWidth" markerWidth="4" orient="auto" refX="0" refY="5" viewBox="0 0 10 10"><path d="M 0 0 L 10 5 L 0 10 z"/></marker><marker id="ArrowStart" markerHeight="3" markerUnits="strokeWidth" markerWidth="4" orient="auto" refX="10" refY="5" viewBox="0 0 10 10"><path d="M 10 0 L 0 5 L 10 10 z"/></marker> </defs>
  <g id="g2958" transform="matrix(1.3532768,0,0,1.3532781,-53.207834,-52.192858)">
    <path d="M 92.0188 71.3784L 123.085 40.3154L 261.975 179.198L 230.905 210.269L 92.0188 71.3784zM 183.147 106.093L 170.401 118.843L 163.05 111.487L 164.308 137.94L 190.757 139.198L 183.405 131.843L 196.155 119.1L 183.147 106.093" style="stroke:none; fill-rule:evenodd; fill:#000000"/>
    <path d="M 107.265 137.956C 116.347 137.499 123.343 129.768 122.893 120.683C 122.444 111.6 114.71 104.604 105.624 105.061C 96.5384 105.511 89.5462 113.241 89.9915 122.327C 90.4485 131.409 98.1829 138.405 107.265 137.956" style="stroke:none; fill-rule:evenodd; fill:#000000"/>
    <path d="M 198.417 234.847C 201.995 233.12 204.382 229.37 204.171 225.156C 203.893 219.535 199.108 215.206 193.487 215.488C 192.788 215.523 192.104 215.628 191.448 215.796L 179.186 217.945L 177.432 177.741C 177.343 175.905 176.768 174.206 175.843 172.765L 139.444 134.136C 137.511 132.382 134.909 131.366 132.104 131.507C 130.585 131.589 129.159 131.983 127.897 132.647L 52.8235 177.034C 49.7845 178.925 47.8431 182.362 48.0306 186.183C 48.3118 191.808 53.097 196.14 58.7142 195.858C 60.5071 195.765 62.1673 195.218 63.5931 194.335L 97.4524 174.319L 70.5188 213.191C 69.5071 214.867 68.9563 216.855 69.0657 218.96C 69.3431 224.578 74.1282 228.91 79.7454 228.628C 83.0032 228.464 85.8196 226.788 87.5696 224.324L 125.405 169.729L 146.229 191.831L 125.858 232.87C 125.054 234.421 124.636 236.195 124.729 238.074C 125.011 243.691 129.991 248.749 135.409 247.738L 168.159 241.128L 212.03 265.816C 213.378 266.374 214.874 266.656 216.432 266.574C 222.05 266.292 226.378 261.507 226.093 255.89C 225.921 252.378 223.987 249.374 221.186 247.683L 198.417 234.847" style="stroke:none; fill-rule:evenodd; fill:#000000"/>
    <path d="M 160.714 207.16L 152.581 223.55L 161.464 221.773L 160.714 207.16" style="stroke:none; fill-rule:evenodd; fill:#ffffff"/>
    <path d="M 29.6204 267.288L 2.62042 267.288" style="stroke:#000000; stroke-width:0.5; fill:none"/>
    <path d="M 38.6204 276.288L 38.6204 303.288" style="stroke:#000000; stroke-width:0.5; fill:none"/>
    <path d="M 29.6204 38.6244L 2.62042 38.6244" style="stroke:#000000; stroke-width:0.5; fill:none"/>
    <path d="M 38.6204 29.6244L 38.6204 2.62042" style="stroke:#000000; stroke-width:0.5; fill:none"/>
    <path d="M 276.288 38.6244L 303.288 38.6244" style="stroke:#000000; stroke-width:0.5; fill:none"/>
    <path d="M 267.288 29.6244L 267.288 2.62042" style="stroke:#000000; stroke-width:0.5; fill:none"/>
    <path d="M 276.288 267.288L 303.288 267.288" style="stroke:#000000; stroke-width:0.5; fill:none"/>
    <path d="M 267.288 276.288L 267.288 303.288" style="stroke:#000000; stroke-width:0.5; fill:none"/>
  </g>
</svg>

<svg viewBox="0 0 305.91 305.91"><g transform="matrix(1.35328 0 0 1.35328-53.21-52.19)" fill-rule="evenodd"><path d="m92.02 71.38l31.07-31.06 138.89 138.88-31.07 31.07-138.89-138.89m91.13 34.715l-12.746 12.75-7.351-7.356 1.258 26.453 26.449 1.258-7.352-7.355 12.75-12.743-13.01-13.01"/><path d="m107.27 137.96c9.08-.457 16.08-8.188 15.628-17.273-.449-9.08-8.183-16.08-17.269-15.622-9.09.45-16.08 8.18-15.632 17.266.457 9.08 8.191 16.08 17.273 15.629"/><path d="m198.42 234.85c3.578-1.727 5.965-5.477 5.754-9.691-.278-5.621-5.063-9.95-10.684-9.668-.699.035-1.383.14-2.039.308l-12.262 2.149-1.754-40.2c-.089-1.836-.664-3.535-1.589-4.976l-36.399-38.629c-1.933-1.754-4.535-2.77-7.34-2.629-1.519.082-2.945.476-4.207 1.14l-75.07 44.39c-3.039 1.891-4.98 5.328-4.793 9.149.281 5.625 5.066 9.957 10.684 9.675 1.793-.093 3.453-.64 4.879-1.523l33.859-20.02-26.934 38.872c-1.012 1.676-1.563 3.664-1.453 5.769.277 5.618 5.063 9.95 10.68 9.668 3.258-.164 6.074-1.84 7.824-4.304l37.835-54.595 20.824 22.1-20.371 41.04c-.804 1.551-1.222 3.325-1.129 5.204.282 5.617 5.262 10.675 10.68 9.664l32.75-6.61 43.871 24.688c1.348.558 2.844.84 4.402.758 5.618-.282 9.946-5.067 9.661-10.684-.172-3.512-2.106-6.516-4.907-8.207l-22.769-12.836"/><path d="m160.71 207.16l-8.133 16.39 8.883-1.777-.75-14.613" fill="#fff"/></g></svg>
